X:1
T:[ID 7-11]
T:[ID 7-11]
T:Bezeichnung standardisiert: Menuet [mit Trio] Menuet Con Trio
T:Urheber unbekannt Datum in der hier transkribierten schriftlichen Quelle: 1776 - 1791
C:Urheber unbekannt
C:Datum in der hier transkribierten schriftlichen Quelle: 1776 - 1791
L:1/8
M:3/4
K:G
V:1 treble 
V:1
"^O)" G,2 (g/f/g/a/) g2 | C2 B,2 A,2 |"^O)" G,2 (g/f/g/a/) g2 | C2 B,2 A,2 | G,2 (b/a/b/c'/) b2 | %5
 G,2 b/a/b/c'/ b2 | (bd')(d'c)(c'b) | b2 a4 :: a4 c'2 | (babc') d'2 | f4 a2 | (gfga) b2 | %12
 Bc d2 d2 | gdbgdB | AB c2 c2 | fc afcA |"^O)" G,2 g/f/g/a/ g2 |"^O)" G,2 g/f/g/a/ g2 | %18
 (3ecA(3dBG(3cAF | G6 :|[M:3/4]"^Trio" !fermata!GB d2 d2 | d3 c B2 | c2 ecAF | F6 | df a2 a2 | %25
 a3 g f2 | g2 bge^c | d6 :: d3 c B2 | c2 cd e2 |{d} c3 B A2 | B2 Bc d2 | Ggfedc | B3 c d2 | %34
 (3edc B2 A2 | G6 :| %36

